assets/images/trop/zuch/kulturoznawcze_rycerze.svg

<svg xmlns="http://www.w3.org/2000/svg" viewBox="0 0 105.48 94.04"><path d="M52.74,92.49a8.54,8.54,0,0,1-7.47-4.31L2.72,14.48A8.63,8.63,0,0,1,10.19,1.54h85.1a8.63,8.63,0,0,1,7.47,12.94L60.21,88.18a8.54,8.54,0,0,1-7.47,4.31" fill="#5d2f88"/><path d="M95.29,3.09a7.08,7.08,0,0,1,6.13,10.62L58.87,87.41a7.08,7.08,0,0,1-12.26,0L4.06,13.71A7.08,7.08,0,0,1,10.19,3.09h85.1m0-3.09H10.19A10.17,10.17,0,0,0,1.38,15.25L43.93,89a10.16,10.16,0,0,0,17.61,0l42.56-73.7A10.17,10.17,0,0,0,95.29,0" fill="#382259"/><path d="M46.76,6.24A17.76,17.76,0,0,0,27.59,22.47a8.24,8.24,0,0,1-5.82,7.21A8.24,8.24,0,0,0,37,28.88a8.63,8.63,0,0,1,8.27-4.43A9.14,9.14,0,1,0,46.76,6.24Z" fill="#afca0b"/><path d="M59.09 58.73l-10.42-4.14a13.91 13.91 0 0 1-2.66.29 7.1 7.1 0 0 1 .58-14.18h0 .6a7.15 7.15 0 0 1 2.77.83L66.79 34a16.57 16.57 0 1 0-25.87 19.87c.27 3.28-4 8.25-4 8.25l27.28 9.17-1.8-11.77a12.21 12.21 0 0 1-3.31-.79zM58 51.15l-7-.84a5.12 5.12 0 0 0 .65-2.09 4.93 4.93 0 0 0 0-.86l6.71.81a22.33 22.33 0 0 0 17.33-5.35l-7-7.55-18.9 8.55a5 5 0 0 0-2.79-1.1 5.1 5.1 0 1 0 1.65 9.72l11.16 4.43a9.86 9.86 0 0 0 12.33-4.49l2.86-5.3a25.2 25.2 0 0 1-17 4.07z" fill="#fff"/><circle cx="46.6" cy="47.8" r="3.4" fill="#f0ae00"/></svg>

<svg id="Warstwa_1" data-name="Warstwa 1" xmlns="http://www.w3.org/2000/svg" viewBox="0 0 105.48 94.04"><defs><style>.cls-1{fill:#5d2f88;}.cls-2{fill:#382259;}.cls-3{fill:#afca0b;}.cls-4{fill:#fff;}.cls-5{fill:#f0ae00;}</style></defs><title>tropy-zuchowe-znaczki-popr-krz</title><path class="cls-1" d="M52.74,92.49a8.54,8.54,0,0,1-7.47-4.31L2.72,14.48A8.63,8.63,0,0,1,10.19,1.54h85.1a8.63,8.63,0,0,1,7.47,12.94L60.21,88.18a8.54,8.54,0,0,1-7.47,4.31"/><path class="cls-2" d="M95.29,3.09a7.08,7.08,0,0,1,6.13,10.62L58.87,87.41a7.08,7.08,0,0,1-12.26,0L4.06,13.71A7.08,7.08,0,0,1,10.19,3.09h85.1m0-3.09H10.19A10.17,10.17,0,0,0,1.38,15.25L43.93,89a10.16,10.16,0,0,0,17.61,0l42.56-73.7A10.17,10.17,0,0,0,95.29,0"/><path class="cls-3" d="M46.76,6.24A17.76,17.76,0,0,0,27.59,22.47a8.24,8.24,0,0,1-5.82,7.21A8.24,8.24,0,0,0,37,28.88a8.63,8.63,0,0,1,8.27-4.43A9.14,9.14,0,1,0,46.76,6.24Z"/><path class="cls-4" d="M59.09,58.73,48.67,54.59a13.91,13.91,0,0,1-2.66.29,7.1,7.1,0,0,1,.58-14.18h0l.6,0a7.15,7.15,0,0,1,2.77.83L66.79,34A16.57,16.57,0,1,0,40.92,53.87c.27,3.28-4,8.25-4,8.25L64.2,71.29,62.4,59.52A12.21,12.21,0,0,1,59.09,58.73Z"/><path class="cls-4" d="M58,51.15l-7-.84a5.12,5.12,0,0,0,.65-2.09,4.93,4.93,0,0,0,0-.86l6.71.81a22.33,22.33,0,0,0,17.33-5.35l-7-7.55L49.79,43.82A5,5,0,0,0,47,42.72a5.1,5.1,0,1,0,1.65,9.72l11.16,4.43a9.86,9.86,0,0,0,12.33-4.49L75,47.08a25.2,25.2,0,0,1-17,4.07Z"/><circle class="cls-5" cx="46.6" cy="47.8" r="3.4"/></svg>
